X: 26540
T: Michael's Own
R: jig
M: 6/8
K: Dmajor
FAA Bdd|faa efg|f2d ecc|dBB cAG|
FAA Bdd|faa efg|f2a gec|ABc d3:|
|:~a3 geA|d2f ecA|fdf cde|GAB EFG|
FAA Bdd|faa efg|f2a gec|ABc d3:|

